svg/work-doodle-dita.svg

<svg width="303" height="400" viewBox="0 0 303 400" fill="none" xmlns="http://www.w3.org/2000/svg">
<path d="M221.118 75.3966C219.181 73.5284 216.678 71.9901 215.424 69.5355C213.69 66.1429 213.089 60.7734 213.924 57.0633C215.697 49.1798 222.794 58.3868 224.229 61.0077C225.44 63.2194 226.118 65.3205 226.118 67.841C226.118 69.8557 226.871 66.459 227.146 65.841C228.725 62.2875 230.488 59.1341 233.396 56.4521C235.795 54.2392 240.912 51.1119 240.951 56.841C240.98 61.0966 238.533 64.3162 235.646 67.1188C234.486 68.2442 233.423 69.5088 232.174 70.5355C231.703 70.9222 230.363 71.1119 230.701 71.6188C230.816 71.7904 236.573 68.698 237.229 68.5077C240.311 67.6139 245.03 66.6242 247.507 69.341C254.031 76.4971 242.895 78.3966 237.924 78.3966C235.89 78.3966 233.282 77.7065 236.396 78.9521C239.404 80.1555 241.229 82.0041 241.562 85.341C242.038 90.0997 235.203 97.0648 230.729 92.7855C229.324 91.4413 228.313 89.1238 228.146 87.2021C227.951 84.9626 227.534 89.4636 227.368 90.1466C226.101 95.3547 220.857 100.358 215.118 98.2855C209.788 96.3608 209.724 87.5808 211.396 83.1744C212.258 80.9003 214.12 79.5522 215.896 78.0077C216.096 77.8336 220.364 74.4419 220.396 75.1188C220.504 77.3945 218.666 79.6012 220.729 81.591C222.964 83.7462 227.801 84.0492 230.562 82.841C235.155 80.8316 236.313 73.2599 232.396 70.0077C229.062 67.2402 223.293 70.8702 222.118 74.3966" stroke="#15CE79" stroke-width="3" stroke-linecap="round"/>
<path d="M82.6191 74.8964C80.9258 79.6844 80.9006 86.61 87.2858 87.6742C91.9434 88.4505 93.7414 81.2798 93.508 77.8964C93.2478 74.123 90.9166 70.7823 86.8691 70.9798C83.7789 71.1305 82.0681 73.4815 80.6191 75.8964" stroke="#15CE79" stroke-width="3" stroke-linecap="round"/>
<path d="M84.6189 72.3965C84.5504 66.0243 87.2417 61.2416 91.2301 56.3965C94.0945 52.9168 98.2613 47.7083 103.008 46.7854C107.036 46.002 104.693 53.871 104.174 55.3409C102.358 60.4915 99.7415 65.0032 96.4523 69.3132C96.1871 69.6607 93.2296 73.1743 94.9523 73.1743C98.3691 73.1743 101.877 70.8019 105.258 70.2298C114.338 68.6931 110.62 78.396 105.397 81.2854C102.763 82.7423 99.9022 82.86 96.9801 83.1465C95.4042 83.301 92.67 82.9948 95.6189 83.5076C102.232 84.6576 108.259 95.3121 102.786 100.785C96.4771 107.094 89.2343 98.8644 86.7301 93.2298C85.9878 91.5598 86.2153 91.4427 85.8412 93.3132C85.214 96.449 84.8824 100.027 82.8967 102.674C79.6502 107.003 72.0002 109.289 71.4245 102.035C71.0231 96.9783 72.2254 91.4739 74.2301 86.8409C74.5481 86.1059 76.1031 81.5076 77.3412 81.5076C78.3645 81.5076 76.9961 82.9054 76.5078 83.0076C74.9188 83.3402 73.2447 83.5732 71.6189 83.3409C67.4588 82.7466 66.0025 74.284 66.6745 70.9243C67.3945 67.3242 77.8083 69.8225 79.8967 70.8965C80.8379 71.3805 78.3169 70.4956 77.6467 69.5909C75.7734 67.062 75.1189 63.9883 75.1189 60.8965C75.1189 57.6344 75.2844 52.6609 77.8967 50.2576C80.2131 48.1265 82.9972 51.4828 84.0078 53.3965C86.0579 57.2785 86.1189 66.3965 86.1189 66.3965" stroke="#15CE79" stroke-width="3" stroke-linecap="round"/>
<path d="M184.119 35.3965C183.555 27.6071 184.452 19.7058 193.508 18.1187C200.356 16.9186 198.519 25.1251 196.619 28.7854C195.27 31.3837 193.562 33.6897 191.758 35.9798C190.059 38.1364 193.01 35.6417 193.675 35.2854C195.658 34.2227 207.445 28.2907 208.758 32.8132C210.179 37.707 204.198 40.8026 200.675 42.3687C197.149 43.9356 201.231 43.962 201.564 46.9521C201.933 50.2752 199.927 52.6726 196.591 52.8687C193.602 53.0446 186.985 53.0549 185.23 49.8965C184.765 49.0586 186.003 50.2745 186.119 50.5076C186.906 52.0815 187.23 53.9251 187.008 55.6743C186.528 59.4615 182.186 60.2355 179.175 58.7298C175.856 57.0704 170.881 52.7535 170.23 48.7854C169.609 44.9938 174.826 44.8224 177.286 43.6743C177.942 43.3681 173.534 44.4473 172.119 44.3687C167.145 44.0924 165.815 39.0077 167.203 34.7576C170.235 25.4705 180.149 32.9856 182.119 38.8965" stroke="#15CE79" stroke-width="3" stroke-linecap="round"/>
<path d="M186.118 40.3965C184.031 42.2685 174.392 50.6484 182.229 52.1743C186.103 52.9284 190.793 50.6028 191.702 46.6188C192.302 43.9881 191.406 40.3058 188.285 39.841C184.337 39.253 182.698 42.3744 181.618 45.3965" stroke="#15CE79" stroke-width="3" stroke-linecap="round"/>
<path d="M232.62 130.896C232.461 136.353 230.916 154.841 242.203 147.98C245.962 145.695 248.505 137.818 246.203 133.896C244.137 130.375 238.601 129.208 234.842 130.23C233.364 130.631 230.598 132.385 232.62 133.396" stroke="#15CE79" stroke-width="3" stroke-linecap="round"/>
<path d="M234.12 131.396C234.497 126.01 234.138 119.471 238.397 115.396C241.367 112.556 246.118 110.328 250.286 110.563C258.087 111.003 256.63 119.89 253.397 124.396C251.56 126.957 249.374 129.364 247.175 131.619C245.465 133.372 246.235 132.799 248.314 132.369C255.303 130.923 263.754 132.05 268.147 138.48C273.07 145.683 262.712 147.54 257.842 147.785C254.861 147.935 252.153 147.419 249.286 146.702C248.248 146.442 247.425 146.118 248.953 146.619C254.366 148.393 258.379 154.264 257.647 160.035C256.614 168.189 245.762 169.531 239.758 166.73C235.637 164.807 231.775 160.033 232.731 155.119C232.935 154.068 233.051 155.489 233.008 155.73C232.542 158.358 231.052 160.832 229.008 162.535C223.753 166.915 216.196 166.345 214.953 158.785C213.713 151.248 219.674 144.015 225.953 140.73C226.352 140.521 227.637 140.225 227.286 140.508C225.497 141.951 222.393 142.24 220.203 142.313C215.389 142.474 209.178 137.844 212.647 132.591C215.886 127.687 230.239 120.595 233.842 128.508C234.55 130.064 234.269 133.5 232.62 134.508C231.304 135.311 229.752 132.592 229.12 131.896" stroke="#15CE79" stroke-width="3" stroke-linecap="round"/>
<path d="M77.1195 143.896C78.6634 137.528 80.5929 131.048 81.314 124.508C81.491 122.902 81.6952 120.442 80.064 119.341C75.602 116.328 72.2244 125.511 71.5084 128.174C70.3375 132.53 70.6195 137.099 70.6195 141.563C70.6195 142.793 69.858 137.704 69.4251 136.813C66.6121 131.022 60.9134 125.322 54.7862 123.174C50.416 121.642 46.7862 124.702 46.7862 129.202C46.7862 135.107 53.0572 139.829 57.8973 142.063C59.233 142.68 63.7509 143.414 63.6195 143.424C59.9206 143.72 56.152 144.52 52.6473 145.73C48.7393 147.079 40.7934 151.597 41.564 156.785C42.3467 162.055 52.204 161.221 55.564 160.758C58.1606 160.399 60.8206 159.828 63.064 158.396C63.9598 157.825 66.1722 156.375 65.1751 156.008C61.9498 154.819 57.0716 164.133 56.314 165.924C54.7945 169.516 53.0344 176.81 58.7306 177.674C64.3465 178.527 68.0018 171.567 69.6751 167.258C70.776 164.422 72.6027 155.639 71.0084 158.23C69.6265 160.475 70.9551 165.663 71.9529 167.785C73.632 171.357 77.9948 174.545 82.0917 174.23C86.2872 173.907 86.9521 169.395 86.3973 166.008C85.7937 162.323 83.2314 159.601 81.0084 156.785C79.8998 155.381 82.7727 155.896 83.4529 155.896C86.7444 155.896 92.7812 156.904 95.2306 154.063C97.3829 151.566 95.72 147.336 93.564 145.508C89.8325 142.342 84.6169 141.569 79.8973 141.424C76.0671 141.306 71.3263 140.695 67.5084 141.508C61.7584 142.731 56.5604 146.873 59.2862 153.508C60.7802 157.144 65.0701 160.168 69.064 158.73C72.8996 157.349 73.7625 152.818 73.5084 149.23C73.3073 146.389 71.4863 142.852 68.6195 141.896" stroke="#15CE79" stroke-width="3" stroke-linecap="round"/>
<path d="M45.1187 93.3964C45.527 87.7626 47.0532 80.8234 44.5354 75.452C43.3706 72.9671 41.2283 69.6975 38.1465 69.5353C35.0553 69.3726 33.1271 73.3906 32.5076 75.8686C31.7242 79.0022 32.5623 82.0338 34.0909 84.7853C34.5405 85.5946 36.4277 87.2764 35.5076 87.1742C34.3256 87.0429 32.4933 84.9245 31.1187 84.5075C28.4087 83.6854 25.1632 83.5413 23.0076 85.6742C20.6877 87.9697 18.7014 91.9691 21.0632 94.8964C23.1458 97.4777 26.6074 98.1624 29.702 98.5909C30.1077 98.647 34.7585 98.7472 31.952 98.3964C25.3797 97.5749 19.3094 100.021 20.7576 107.841C21.7951 113.443 30.2778 113.966 34.0076 111.008C34.9155 110.287 36.101 113.199 36.6187 113.785C38.2841 115.671 40.5445 116.131 42.8965 115.174C44.9727 114.329 45.9669 112.413 46.5632 110.369C47.0378 108.741 47.1187 103.618 47.1187 105.313C47.1187 109.183 52.3741 110.274 54.0354 106.785C56.4612 101.691 53.773 95.958 48.7854 93.6186C46.1883 92.4005 43.0526 92.0123 40.452 93.3964C40.284 93.4859 38.185 94.795 38.7298 95.2853C39.6984 96.1571 42.8568 94.3488 41.452 93.6464C35.0517 90.4463 29.9432 98.5005 31.0632 104.202C31.6091 106.981 34.6018 107.498 37.0076 107.285C40.6059 106.967 42.4688 104.139 43.2854 100.841C43.6495 99.3703 41.4174 93.299 40.1187 95.8964" stroke="#15CE79" stroke-width="3" stroke-linecap="round"/>
<path d="M81.6191 159.896C88.739 165.886 96.2878 171.281 102.98 177.785C107.573 182.249 112.099 186.532 117.119 190.508C121.063 193.631 124.509 196.887 127.591 200.869C129.597 203.459 131.414 206.051 133.119 208.841C134.612 211.283 136.76 213.166 138.008 215.785C138.339 216.48 141.619 222.027 141.619 219.896" stroke="#15CE79" stroke-width="3" stroke-linecap="round"/>
<path d="M101.619 99.3965C109.928 107.705 118.633 115.859 125.702 125.285C132.577 134.451 136.408 146.206 140.23 156.896C142.925 164.434 146.087 171.801 148.619 179.396C150.627 185.42 150.931 191.381 151.897 197.591C152.772 203.219 154.119 209.195 154.119 214.896C154.119 216.73 154.119 218.563 154.119 220.396C154.119 223.076 153.814 221.149 153.619 219.396" stroke="#15CE79" stroke-width="3" stroke-linecap="round"/>
<path d="M213.119 98.3965C206.236 112.544 200.297 127.245 193.897 141.619C187.016 157.072 180.578 173.058 175.73 189.285C173.376 197.167 169.958 204.696 167.897 212.646C167.519 214.105 166.119 221.614 166.119 216.396" stroke="#15CE79" stroke-width="3" stroke-linecap="round"/>
<path d="M215.619 161.396C199.997 173.641 189.064 191.627 178.119 207.896C176.703 210.002 175.175 212.007 173.619 214.008C172.531 215.406 170.544 217.169 170.119 218.869C169.947 219.557 169.313 223.978 168.619 221.896" stroke="#15CE79" stroke-width="3" stroke-linecap="round"/>
<path d="M53.6191 108.396C59.4573 110.899 65.9985 117.178 69.008 122.896C70.2685 125.291 72.1191 127.074 72.1191 129.896" stroke="#15CE79" stroke-width="3" stroke-linecap="round"/>
<path d="M177.619 219.397C177.721 220.823 178.907 218.157 179.119 217.785C180.663 215.074 182.04 212.279 184.23 210.008C189.715 204.319 195.807 198.896 202.008 194.008C206.508 190.461 211.275 187.837 216.897 186.508C221.883 185.329 230.273 184.577 234.897 187.285C238.023 189.116 241.476 191.356 243.286 194.563C244.829 197.3 245.71 200.578 246.841 203.508C247.295 204.682 248.551 206.663 248.619 207.897C248.673 208.864 248.119 210.832 248.119 208.897" stroke="#15CE79" stroke-width="3" stroke-linecap="round"/>
<path d="M253.119 209.896C246.358 211.612 241.619 213.814 241.619 221.507C241.619 224.04 242.994 226.049 244.73 227.785C247.365 230.42 238.026 222.874 234.369 223.591C231.782 224.098 229.775 226.943 230.953 229.507C232.199 232.223 235.464 232.735 238.091 233.119C240.366 233.45 242.612 233.333 244.897 233.396C246.682 233.446 243.692 235.831 243.369 236.174C241.163 238.514 237.793 245.709 244.341 245.257C246.482 245.11 248.29 242.079 249.119 240.396C249.823 238.969 250.119 234.139 250.119 235.73C250.119 239.377 250.935 244.895 255.286 245.785C259.299 246.606 259.661 236.635 258.508 234.507C258.35 234.216 255.884 231.594 255.703 232.23C255.392 233.316 257.649 235.445 258.341 236.007C261.809 238.82 268.824 235.12 267.536 230.396C266.735 227.46 261.298 223.818 258.453 226.146C257.794 226.685 260.707 224.8 261.23 224.174C262.94 222.13 263.955 219.842 264.091 217.174C264.373 211.676 258.167 210.632 253.925 209.674C252.143 209.272 250.048 209.091 248.73 210.619C247.604 211.924 246.449 214.061 248.119 214.896" stroke="#15CE79" stroke-width="3" stroke-linecap="round"/>
<path d="M255.119 222.896C249.997 222.774 242.751 225.845 243.702 231.869C244.523 237.07 252.331 236.703 254.785 233.063C257.086 229.652 257.677 223.489 254.619 220.341C251.921 217.564 247.851 219.189 245.119 220.896" stroke="#15CE79" stroke-width="3" stroke-linecap="round"/>
</svg>

<svg xmlns="http://www.w3.org/2000/svg" width="303" height="400" fill="none"><path stroke="#15CE79" stroke-linecap="round" stroke-width="3" d="M221.118 75.397c-1.937-1.869-4.44-3.407-5.694-5.862-1.734-3.392-2.335-8.762-1.5-12.472 1.773-7.883 8.87 1.324 10.305 3.945 1.211 2.211 1.889 4.312 1.889 6.833 0 2.015.753-1.382 1.028-2 1.579-3.553 3.342-6.707 6.25-9.389 2.399-2.213 7.516-5.34 7.555.389.029 4.256-2.418 7.475-5.305 10.278-1.16 1.125-2.223 2.39-3.472 3.416-.471.387-1.811.577-1.473 1.084.115.171 5.872-2.921 6.528-3.111 3.082-.894 7.801-1.884 10.278.833 6.524 7.156-4.612 9.056-9.583 9.056-2.034 0-4.642-.69-1.528.555 3.008 1.204 4.833 3.052 5.166 6.389.476 4.759-6.359 11.724-10.833 7.445-1.405-1.345-2.416-3.662-2.583-5.584-.195-2.24-.612 2.262-.778 2.945-1.267 5.208-6.511 10.211-12.25 8.138-5.33-1.924-5.394-10.704-3.722-15.11.862-2.275 2.724-3.623 4.5-5.167.2-.174 4.468-3.566 4.5-2.89.108 2.276-1.73 4.483.333 6.473 2.235 2.155 7.072 2.458 9.833 1.25 4.593-2.01 5.751-9.581 1.834-12.833-3.334-2.768-9.103.862-10.278 4.389m-139.498.499c-1.694 4.788-1.72 11.714 4.666 12.778 4.657.776 6.455-6.394 6.222-9.778-.26-3.773-2.591-7.114-6.639-6.916-3.09.15-4.8 2.501-6.25 4.916"/><path stroke="#15CE79" stroke-linecap="round" stroke-width="3" d="M84.619 72.397c-.069-6.373 2.623-11.155 6.611-16 2.864-3.48 7.031-8.689 11.778-9.612 4.028-.783 1.685 7.086 1.166 8.556-1.816 5.15-4.433 9.662-7.722 13.972-.265.348-3.222 3.861-1.5 3.861 3.417 0 6.925-2.372 10.306-2.944 9.08-1.537 5.362 8.166.139 11.055-2.634 1.457-5.495 1.575-8.417 1.862-1.576.154-4.31-.152-1.361.36 6.613 1.15 12.64 11.805 7.167 17.278-6.309 6.309-13.552-1.92-16.056-7.555-.742-1.67-.515-1.787-.889.083-.627 3.136-.959 6.714-2.944 9.361-3.247 4.329-10.897 6.615-11.473-.639-.4-5.057.801-10.561 2.806-15.194.318-.735 1.873-5.333 3.111-5.333 1.024 0-.345 1.397-.833 1.5-1.59.332-3.263.565-4.89.333-4.16-.594-5.615-9.057-4.944-12.417.72-3.6 11.134-1.102 13.223-.028.94.484-1.58-.4-2.25-1.305-1.874-2.529-2.528-5.603-2.528-8.694 0-3.263.165-8.236 2.778-10.64 2.316-2.13 5.1 1.226 6.11 3.14 2.05 3.882 2.112 13 2.112 13m98-31c-.564-7.79.333-15.691 9.389-17.278 6.848-1.2 5.011 7.006 3.111 10.666-1.349 2.599-3.057 4.905-4.861 7.195-1.699 2.156 1.252-.338 1.917-.695 1.983-1.062 13.77-6.994 15.083-2.472 1.421 4.894-4.56 7.99-8.083 9.556-3.526 1.567.556 1.593.889 4.583.369 3.323-1.637 5.72-4.973 5.917-2.989.176-9.606.186-11.361-2.972-.465-.838.773.378.889.61a9.138 9.138 0 0 1 .889 5.167c-.48 3.788-4.822 4.562-7.833 3.056-3.319-1.66-8.294-5.976-8.945-9.945-.621-3.791 4.596-3.963 7.056-5.11.656-.307-3.752.772-5.167.694-4.974-.277-6.304-5.361-4.916-9.611 3.032-9.288 12.946-1.772 14.916 4.139"/><path stroke="#15CE79" stroke-linecap="round" stroke-width="3" d="M186.118 40.397c-2.087 1.872-11.726 10.251-3.889 11.777 3.874.754 8.564-1.571 9.473-5.555.6-2.63-.296-6.313-3.417-6.778-3.948-.588-5.587 2.533-6.667 5.556m51.002 85.499c-.159 5.457-1.704 23.945 9.583 17.084 3.759-2.285 6.302-10.162 4-14.084-2.066-3.521-7.602-4.688-11.361-3.666-1.478.401-4.244 2.155-2.222 3.166"/><path stroke="#15CE79" stroke-linecap="round" stroke-width="3" d="M234.12 131.396c.377-5.386.018-11.925 4.277-16 2.97-2.84 7.721-5.068 11.889-4.833 7.801.44 6.344 9.327 3.111 13.833-1.837 2.561-4.023 4.968-6.222 7.223-1.71 1.753-.94 1.18 1.139.75 6.989-1.446 15.44-.319 19.833 6.111 4.923 7.203-5.435 9.06-10.305 9.305-2.981.15-5.689-.366-8.556-1.083-1.038-.26-1.861-.584-.333-.083 5.413 1.774 9.426 7.645 8.694 13.416-1.033 8.154-11.885 9.496-17.889 6.695-4.121-1.923-7.983-6.697-7.027-11.611.204-1.051.32.37.277.611-.466 2.628-1.956 5.102-4 6.805-5.255 4.38-12.812 3.81-14.055-3.75-1.24-7.537 4.721-14.77 11-18.055.399-.209 1.684-.505 1.333-.222-1.789 1.443-4.893 1.732-7.083 1.805-4.814.161-11.025-4.469-7.556-9.722 3.239-4.904 17.592-11.996 21.195-4.083.708 1.556.427 4.992-1.222 6-1.316.803-2.868-1.916-3.5-2.612m-152 12c1.543-6.368 3.473-12.848 4.194-19.388.177-1.606.381-4.066-1.25-5.167-4.462-3.013-7.84 6.17-8.556 8.833-1.17 4.356-.888 8.925-.888 13.389 0 1.23-.762-3.859-1.195-4.75-2.813-5.791-8.512-11.491-14.639-13.639-4.37-1.532-8 1.528-8 6.028 0 5.905 6.271 10.627 11.111 12.861 1.336.617 5.854 1.351 5.723 1.361a45.02 45.02 0 0 0-10.973 2.306c-3.908 1.349-11.854 5.867-11.083 11.055.783 5.27 10.64 4.436 14 3.973 2.597-.359 5.257-.93 7.5-2.362.896-.571 3.108-2.021 2.111-2.388-3.225-1.189-8.103 8.125-8.861 9.916-1.52 3.592-3.28 10.886 2.417 11.75 5.616.853 9.27-6.107 10.944-10.416 1.101-2.836 2.928-11.619 1.333-9.028-1.382 2.245-.053 7.433.945 9.555 1.679 3.572 6.042 6.76 10.139 6.445 4.195-.323 4.86-4.835 4.305-8.222-.603-3.685-3.166-6.407-5.389-9.223-1.108-1.404 1.765-.889 2.445-.889 3.291 0 9.328 1.008 11.778-1.833 2.152-2.497.489-6.727-1.667-8.555-3.731-3.166-8.947-3.939-13.667-4.084-3.83-.118-8.57-.729-12.389.084-5.75 1.223-10.948 5.365-8.222 12 1.494 3.636 5.784 6.66 9.778 5.222 3.836-1.381 4.699-5.912 4.444-9.5-.2-2.841-2.022-6.378-4.888-7.334m-23.501-48.5c.408-5.633 1.934-12.573-.584-17.944-1.164-2.485-3.307-5.754-6.388-5.917-3.092-.162-5.02 3.856-5.64 6.334-.783 3.133.055 6.165 1.584 8.916.45.81 2.337 2.491 1.417 2.39-1.182-.132-3.015-2.25-4.39-2.668-2.71-.822-5.955-.966-8.11 1.167-2.32 2.296-4.307 6.295-1.945 9.222 2.083 2.582 5.544 3.266 8.639 3.695.406.056 5.056.156 2.25-.195-6.572-.821-12.643 1.625-11.194 9.445 1.037 5.602 9.52 6.125 13.25 3.167.907-.721 2.093 2.191 2.61 2.777 1.666 1.886 3.926 2.346 6.279 1.389 2.076-.845 3.07-2.761 3.666-4.805.475-1.628.556-6.751.556-5.056 0 3.87 5.255 4.961 6.916 1.472 2.426-5.094-.262-10.827-5.25-13.166-2.597-1.219-5.732-1.607-8.333-.223-.168.09-2.267 1.399-1.722 1.89.968.871 4.127-.937 2.722-1.64-6.4-3.2-11.509 4.855-10.389 10.556.546 2.779 3.539 3.296 5.945 3.083 3.598-.318 5.46-3.146 6.277-6.444.365-1.47-1.868-7.542-3.166-4.945"/><path stroke="#15CE79" stroke-linecap="round" stroke-width="3" d="M81.62 159.896c7.119 5.99 14.668 11.385 21.36 17.889 4.593 4.464 9.119 8.747 14.139 12.723 3.944 3.123 7.39 6.379 10.472 10.361 2.006 2.59 3.823 5.182 5.528 7.972 1.493 2.442 3.641 4.325 4.889 6.944.331.695 3.611 6.242 3.611 4.111m-40-120.499c8.309 8.308 17.014 16.462 24.083 25.888 6.875 9.166 10.706 20.921 14.528 31.611 2.695 7.538 5.857 14.905 8.389 22.5 2.008 6.024 2.312 11.985 3.278 18.195.875 5.628 2.222 11.604 2.222 17.305v5.5c0 2.68-.305.753-.5-1m59.5-120.999c-6.883 14.147-12.822 28.848-19.222 43.222-6.881 15.453-13.319 31.439-18.167 47.666-2.354 7.882-5.772 15.411-7.833 23.361-.378 1.459-1.778 8.968-1.778 3.75m49.5-55c-15.622 12.245-26.555 30.231-37.5 46.5-1.416 2.106-2.944 4.111-4.5 6.112-1.088 1.398-3.075 3.161-3.5 4.861-.172.688-.806 5.109-1.5 3.027M53.62 108.396c5.837 2.503 12.379 8.782 15.388 14.5 1.26 2.395 3.111 4.178 3.111 7m105.5 89.501c.102 1.426 1.288-1.24 1.5-1.612 1.544-2.711 2.921-5.506 5.111-7.777 5.485-5.689 11.577-11.112 17.778-16 4.5-3.547 9.267-6.171 14.889-7.5 4.986-1.179 13.376-1.931 18 .777 3.126 1.831 6.579 4.071 8.389 7.278 1.543 2.737 2.424 6.015 3.555 8.945.454 1.174 1.71 3.155 1.778 4.389.054.967-.5 2.935-.5 1m5 .999c-6.761 1.716-11.5 3.918-11.5 11.611 0 2.533 1.375 4.542 3.111 6.278 2.635 2.635-6.704-4.911-10.361-4.194-2.587.507-4.594 3.352-3.416 5.916 1.246 2.716 4.511 3.228 7.138 3.612 2.275.331 4.521.214 6.806.277 1.785.05-1.205 2.435-1.528 2.778-2.206 2.34-5.576 9.535.972 9.083 2.141-.147 3.949-3.178 4.778-4.861.704-1.427 1-6.257 1-4.666 0 3.647.816 9.165 5.167 10.055 4.013.821 4.375-9.15 3.222-11.278-.158-.291-2.624-2.913-2.805-2.277-.311 1.086 1.946 3.215 2.638 3.777 3.468 2.813 10.483-.887 9.195-5.611-.801-2.936-6.238-6.578-9.083-4.25-.659.539 2.254-1.346 2.777-1.972 1.71-2.044 2.725-4.332 2.861-7 .282-5.498-5.924-6.542-10.166-7.5-1.782-.402-3.877-.583-5.195.945-1.126 1.305-2.281 3.442-.611 4.277"/><path stroke="#15CE79" stroke-linecap="round" stroke-width="3" d="M255.119 222.896c-5.122-.122-12.368 2.949-11.417 8.973.821 5.201 8.629 4.834 11.083 1.194 2.301-3.411 2.892-9.574-.166-12.722-2.698-2.777-6.768-1.152-9.5.555"/></svg>
